images/icons/privacy.svg

<svg width="48" height="48" viewBox="0 0 48 48" fill="none" xmlns="http://www.w3.org/2000/svg">
<path d="M21.8 30.2L33.2 18.8L31.1 16.75L21.95 25.9L16.9 20.85L14.7 23.0499L21.8 30.2ZM24 43.95C19.3333 42.7833 15.5 40.075 12.5 35.825C9.5 31.575 8 26.9166 8 21.85V9.94995L24 3.94995L40 9.94995V21.85C40 26.9166 38.5 31.575 35.5 35.825C32.5 40.075 28.6667 42.7833 24 43.95Z" fill="#CDCDCD"/>
</svg>

<svg xmlns="http://www.w3.org/2000/svg" height="48" width="48"><path d="m21.8 30.2 11.4-11.4-2.1-2.05-9.15 9.15-5.05-5.05-2.2 2.2ZM24 43.95q-7-1.75-11.5-8.125T8 21.85V9.95l16-6 16 6v11.9q0 7.6-4.5 13.975T24 43.95Z"/></svg>
